web/abstruse/src/assets/images/avatars/avatar_5.svg

<svg width="200px" height="259px" viewBox="0 0 200 259" version="1.1" xmlns="http://www.w3.org/2000/svg" xmlns:xlink="http://www.w3.org/1999/xlink">
    <!-- Generator: Sketch 50.2 (55047) - http://www.bohemiancoding.com/sketch -->
    <desc>Created with Sketch.</desc>
    <defs>
        <path d="M124,144.610951 L124,163 L128,163 C167.764502,163 200,195.235498 200,235 L200,244 L0,244 L0,235 C-4.86974701e-15,195.235498 32.235498,163 72,163 L76,163 L76,144.610951 C58.7626345,136.422372 46.3722246,119.687011 44.3051388,99.8812385 C38.4803105,99.0577866 34,94.0521096 34,88 L34,74 C34,68.0540074 38.3245733,63.1180731 44,62.1659169 L44,56 C44,25.072054 69.072054,5.68137151e-15 100,0 C130.927946,-5.68137151e-15 156,25.072054 156,56 L156,62.1659169 C161.675427,63.1180731 166,68.0540074 166,74 L166,88 C166,94.0521096 161.51969,99.0577866 155.694861,99.8812385 C153.627775,119.687011 141.237365,136.422372 124,144.610951 Z" id="path-1"></path>
        <path d="M181.544255,32.3304167 C210.784209,41.4878872 232,68.7921987 232,101.051724 L232,110 L32,110 L32,101.051724 C32,68.3969699 53.7388273,40.8195914 83.5340368,32.0020332 C83.182234,33.4201865 83,34.8712315 83,36.3476251 C83,52.6289957 105.161905,65.8276544 132.5,65.8276544 C159.838095,65.8276544 182,52.6289957 182,36.3476251 C182,34.9849859 181.844766,33.6439396 181.544255,32.3304167 Z" id="path-3"></path>
        <path d="M29,15.6086957 C30.410031,25.2313711 41.062182,33 54,33 C66.9681454,33 77.6461342,25.183301 79,14.7391304 C79.1012093,14.3397326 78.775269,13 76.826087,13 C56.838426,13 41.7395748,13 31.173913,13 C29.3833142,13 28.870211,14.2404669 29,15.6086957 Z" id="path-5"></path>
        <rect id="path-7" x="0" y="0" width="264" height="280"></rect>
        <path d="M66.0421575,77.0749852 C71.6795257,45.2058307 99.5129755,21 133,21 C170.555363,21 201,51.444637 201,89 L201,119.751022 C201.875211,129.554379 202.693946,136.422143 203.456205,140.354314 C204.833317,147.458254 209.150269,145.115419 209.150269,155.220201 C209.150269,165.324983 204.822005,168.720206 204.803237,177.705482 C204.784469,186.690758 220.200444,193.836185 220.200444,205.242606 C220.200444,216.649027 213.126079,270.475928 142.577598,270.475928 C127.507235,270.475928 114.670509,266.188589 104.06742,257.613911 C104.750275,264.103957 105.394468,271.565987 106,280 L59,280 C59.9324304,256.228591 51.7156549,242.936205 51.7156549,216.44564 C51.7156549,189.955074 65.3525844,151.427541 65,142 C65.019981,141.417741 65.0406721,140.728417 65.0620734,139.932027 C65.0208303,138.959828 65,137.982347 65,137 L65,89 C65,85.0240875 65.3412247,81.1278723 65.9959868,77.3390417 C65.9973236,77.2261704 65.9986613,77.1131564 66,77 C66.0140661,77.0249783 66.0281186,77.0499734 66.0421575,77.0749852 Z M132.5,53 C102.400481,53 78,77.4004811 78,107.5 L78,130.5 C78,160.599519 102.400481,185 132.5,185 L133.5,185 C163.599519,185 188,160.599519 188,130.5 L188,107.5 C188,77.4004811 163.599519,53 133.5,53 L132.5,53 Z" id="path-9"></path>
    </defs>
    <g id="Introduction" stroke="none" stroke-width="1" fill="none" fill-rule="evenodd">
        <g id="Intro" transform="translate(-1095.000000, -350.000000)">
            <g id="back" transform="translate(295.000000, 329.000000)">
                <g id="Avataaar/Default" transform="translate(768.000000, 0.000000)">
                    <g id="Body" stroke-width="1" fill-rule="evenodd" transform="translate(32.000000, 36.000000)">
                        <mask id="mask-2" fill="white">
                            <use xlink:href="#path-1"></use>
                        </mask>
                        <use fill="#D0C6AC" xlink:href="#path-1"></use>
                        <g id="Skin/👶🏼-04-Light" mask="url(#mask-2)" fill="#EDB98A">
                            <g transform="translate(-32.000000, 0.000000)" id="Color">
                                <rect x="0" y="0" width="264" height="244"></rect>
                            </g>
                        </g>
                        <path d="M156,94 L156,102 C156,132.927946 130.927946,158 100,158 C69.072054,158 44,132.927946 44,102 L44,94 C44,124.927946 69.072054,150 100,150 C130.927946,150 156,124.927946 156,94 Z" id="Neck-Shadow" fill-opacity="0.100000001" fill="#000000" mask="url(#mask-2)"></path>
                    </g>
                    <g id="Clothing/Shirt-Scoop-Neck" transform="translate(0.000000, 170.000000)">
                        <mask id="mask-4" fill="white">
                            <use xlink:href="#path-3"></use>
                        </mask>
                        <use id="Clothes" fill="#E6E6E6" fill-rule="evenodd" xlink:href="#path-3"></use>
                        <g id="Color/Palette/Gray-01" mask="url(#mask-4)" fill="#E6E6E6" fill-rule="evenodd">
                            <rect id="🖍Color" x="0" y="0" width="264" height="110"></rect>
                        </g>
                    </g>
                    <g id="Face" stroke-width="1" fill-rule="evenodd" transform="translate(76.000000, 82.000000)">
                        <g id="Mouth/Tongue" transform="translate(2.000000, 52.000000)">
                            <mask id="mask-6" fill="white">
                                <use xlink:href="#path-5"></use>
                            </mask>
                            <use id="Mouth" fill-opacity="0.699999988" fill="#000000" fill-rule="evenodd" xlink:href="#path-5"></use>
                            <rect id="Teeth" fill="#FFFFFF" fill-rule="evenodd" mask="url(#mask-6)" x="39" y="2" width="31" height="16" rx="5"></rect>
                            <path d="M65.9841079,23.7466656 C65.9945954,23.8296335 66,23.9141856 66,24 L66,33 C66,39.0751322 61.0751322,44 55,44 L54,44 C47.9248678,44 43,39.0751322 43,33 L43,24 C43,23.9141856 43.0054046,23.8296335 43.0158921,23.7466656 C43.0053561,23.6651805 43,23.5829271 43,23.5 C43,21.5670034 45.9101491,20 49.5,20 C51.510438,20 53.3076958,20.4914717 54.5,21.2634601 C55.6923042,20.4914717 57.489562,20 59.5,20 C63.0898509,20 66,21.5670034 66,23.5 C66,23.5829271 65.9946439,23.6651805 65.9841079,23.7466656 Z" id="Tongue" fill="#FF4F6D" fill-rule="evenodd"></path>
                        </g>
                        <g id="Nose/Default" transform="translate(28.000000, 40.000000)" fill="#000000" fill-opacity="0.16">
                            <path d="M16,8 C16,12.418278 21.372583,16 28,16 C34.627417,16 40,12.418278 40,8" id="Nose"></path>
                        </g>
                        <g id="Eyes/Default-😀" transform="translate(0.000000, 8.000000)" fill="#000000" fill-opacity="0.599999964">
                            <circle id="Eye" cx="30" cy="22" r="6"></circle>
                            <circle id="Eye" cx="82" cy="22" r="6"></circle>
                        </g>
                        <g id="Eyebrow/Outline/Default" fill="#000000" fill-opacity="0.599999964">
                            <g id="I-Browse" transform="translate(12.000000, 6.000000)">
                                <path d="M3.63024536,11.1585767 C7.54515501,5.64986673 18.2779197,2.56083721 27.5230268,4.83118046 C28.5957248,5.0946055 29.6788665,4.43856013 29.9422916,3.36586212 C30.2057166,2.2931641 29.5496712,1.21002236 28.4769732,0.94659732 C17.7403633,-1.69001789 5.31209962,1.88699832 0.369754639,8.84142326 C-0.270109626,9.74178291 -0.0589363917,10.9903811 0.84142326,11.6302454 C1.74178291,12.2701096 2.9903811,12.0589364 3.63024536,11.1585767 Z" id="Eyebrow" fill-rule="nonzero"></path>
                                <path d="M61.6302454,11.1585767 C65.545155,5.64986673 76.2779197,2.56083721 85.5230268,4.83118046 C86.5957248,5.0946055 87.6788665,4.43856013 87.9422916,3.36586212 C88.2057166,2.2931641 87.5496712,1.21002236 86.4769732,0.94659732 C75.7403633,-1.69001789 63.3120996,1.88699832 58.3697546,8.84142326 C57.7298904,9.74178291 57.9410636,10.9903811 58.8414233,11.6302454 C59.7417829,12.2701096 60.9903811,12.0589364 61.6302454,11.1585767 Z" id="Eyebrow" fill-rule="nonzero" transform="translate(73.000154, 6.039198) scale(-1, 1) translate(-73.000154, -6.039198) "></path>
                            </g>
                        </g>
                    </g>
                    <g id="Top" stroke-width="1" fill-rule="evenodd">
                        <mask id="mask-8" fill="white">
                            <use xlink:href="#path-7"></use>
                        </mask>
                        <g id="Mask"></g>
                        <g id="Top/Accesories/Hijab" mask="url(#mask-8)">
                            <g transform="translate(-1.000000, 0.000000)">
                                <mask id="mask-10" fill="white">
                                    <use xlink:href="#path-9"></use>
                                </mask>
                                <use id="Hijab-Mask" stroke="none" fill="#3B6BAD" fill-rule="evenodd" xlink:href="#path-9"></use>
                                <g id="Color/Palette/Blue-03" stroke="none" fill="none" mask="url(#mask-10)" fill-rule="evenodd">
                                    <g transform="translate(1.000000, 0.000000)" fill="#25557C" id="🖍Color">
                                        <rect x="0" y="0" width="264" height="280"></rect>
                                    </g>
                                </g>
                                <path d="M72.0744416,104.959767 C71.3690172,101.246903 71,97.4161983 71,93.5 C71,59.5344879 98.7583455,32 133,32 C167.241654,32 195,59.5344879 195,93.5 C195,97.4161983 194.630983,101.246903 193.925558,104.959767 C192.341315,72.6827942 165.669927,47 133,47 C100.330073,47 73.6586845,72.6827942 72.0744428,104.959774 Z" id="Band" stroke="none" fill-opacity="0.5" fill="#FFFFFF" fill-rule="evenodd" mask="url(#mask-10)"></path>
                                <path d="M187.929085,104.69543 C188.631457,108.187732 189,111.800827 189,115.5 L189,138.5 C189,168.599519 164.599519,193 134.5,193 L131.5,193 C101.400481,193 77,168.599519 77,138.5 L77,115.5 C77,111.800827 77.3685433,108.187732 78.0709154,104.69543 C78.0238287,105.624341 78,106.559388 78,107.5 L78,130.5 C78,160.599519 102.400481,185 132.5,185 L133.5,185 C163.599519,185 188,160.599519 188,130.5 L188,107.5 C188,106.559388 187.976171,105.624341 187.929085,104.69543 Z M114.16682,206.995462 C120.651206,211.981028 135.663493,213.708321 152.404574,210.756416 C169.145655,207.804512 182.661822,201.046883 187.049987,194.144193 C187.118291,194.396526 187.175421,194.652296 187.221114,194.911435 C188.930607,204.606451 173.985409,215.345413 153.84008,218.897578 C133.694752,222.449742 115.977919,217.469978 114.268426,207.774963 C114.222732,207.515823 114.188938,207.255938 114.166824,206.995464 Z M126.034638,235.921439 C134.227056,241.574977 150.421729,241.843835 167.103682,235.772101 C183.785635,229.700366 196.018656,219.084674 198.660388,209.487828 C198.803116,209.80837 198.935124,210.134883 199.056117,210.46731 C203.582768,222.904181 190.979008,238.909268 170.904831,246.215671 C150.830654,253.522074 130.887742,249.363007 126.361091,236.926135 C126.240098,236.593709 126.131343,236.258733 126.034643,235.921442 Z" id="Shadows" stroke="none" fill-opacity="0.16" fill="#000000" fill-rule="evenodd" opacity="0.899999976" mask="url(#mask-10)"></path>
                                <g id="Top/_Resources/Blank" stroke="none" fill="none" mask="url(#mask-10)">
                                    <g transform="translate(62.000000, 85.000000)"></g>
                                </g>
                            </g>
                        </g>
                    </g>
                </g>
            </g>
        </g>
    </g>
</svg>

<svg width="200" height="259" xmlns="http://www.w3.org/2000/svg" xmlns:xlink="http://www.w3.org/1999/xlink"><defs><path d="M124 144.611V163h4c39.765 0 72 32.235 72 72v9H0v-9c0-39.765 32.235-72 72-72h4v-18.389c-17.237-8.189-29.628-24.924-31.695-44.73C38.48 99.058 34 94.052 34 88V74c0-5.946 4.325-10.882 10-11.834V56c0-30.928 25.072-56 56-56s56 25.072 56 56v6.166c5.675.952 10 5.888 10 11.834v14c0 6.052-4.48 11.058-10.305 11.881-2.067 19.806-14.458 36.541-31.695 44.73z" id="a"/><path d="M181.544 32.33C210.784 41.488 232 68.792 232 101.052V110H32v-8.948c0-32.655 21.739-60.232 51.534-69.05A18.001 18.001 0 0083 36.348c0 16.281 22.162 29.48 49.5 29.48S182 52.629 182 36.348c0-1.363-.155-2.704-.456-4.018z" id="c"/><path d="M29 15.609C30.41 25.23 41.062 33 54 33c12.968 0 23.646-7.817 25-18.26.101-.4-.225-1.74-2.174-1.74H31.174c-1.79 0-2.304 1.24-2.174 2.609z" id="e"/><path id="g" d="M0 0h264v280H0z"/><path d="M66.042 77.075C71.68 45.205 99.513 21 133 21c37.555 0 68 30.445 68 68v30.751c.875 9.803 1.694 16.671 2.456 20.603 1.377 7.104 5.694 4.761 5.694 14.866s-4.328 13.5-4.347 22.485c-.019 8.986 15.397 16.131 15.397 27.538 0 11.406-7.074 65.233-77.622 65.233-15.07 0-27.907-4.287-38.51-12.862.682 6.49 1.326 13.952 1.932 22.386H59c.932-23.771-7.284-37.064-7.284-63.554 0-26.49 13.637-65.018 13.284-74.446.02-.582.04-1.272.062-2.068A69.174 69.174 0 0165 137V89c0-3.976.341-7.872.996-11.661L66 77l.042.075zM132.5 53C102.4 53 78 77.4 78 107.5v23c0 30.1 24.4 54.5 54.5 54.5h1c30.1 0 54.5-24.4 54.5-54.5v-23c0-30.1-24.4-54.5-54.5-54.5h-1z" id="i"/></defs><g fill="none" fill-rule="evenodd"><g transform="translate(0 15)"><mask id="b" fill="#fff"><use xlink:href="#a"/></mask><use fill="#D0C6AC" xlink:href="#a"/><g mask="url(#b)" fill="#EDB98A"><path d="M-32 0h264v244H-32z"/></g><path d="M156 94v8c0 30.928-25.072 56-56 56s-56-25.072-56-56v-8c0 30.928 25.072 56 56 56s56-25.072 56-56z" fill-opacity=".1" fill="#000" mask="url(#b)"/></g><g transform="translate(-32 149)"><mask id="d" fill="#fff"><use xlink:href="#c"/></mask><use fill="#E6E6E6" xlink:href="#c"/><g mask="url(#d)" fill="#E6E6E6"><path d="M0 0h264v110H0z"/></g></g><g transform="translate(46 113)"><mask id="f" fill="#fff"><use xlink:href="#e"/></mask><use fill-opacity=".7" fill="#000" xlink:href="#e"/><rect fill="#FFF" mask="url(#f)" x="39" y="2" width="31" height="16" rx="5"/><path d="M65.984 23.747c.01.083.016.167.016.253v9c0 6.075-4.925 11-11 11h-1c-6.075 0-11-4.925-11-11v-9c0-.086.005-.17.016-.253A1.922 1.922 0 0143 23.5c0-1.933 2.91-3.5 6.5-3.5 2.01 0 3.808.491 5 1.263 1.192-.772 2.99-1.263 5-1.263 3.59 0 6.5 1.567 6.5 3.5 0 .083-.005.165-.016.247z" fill="#FF4F6D"/></g><path d="M88 109c0 4.418 5.373 8 12 8s12-3.582 12-8" fill="#000" fill-opacity=".16"/><g transform="translate(44 69)" fill="#000" fill-opacity=".6"><circle cx="30" cy="22" r="6"/><circle cx="82" cy="22" r="6"/></g><g fill-rule="nonzero" fill="#000" fill-opacity=".6"><path d="M59.63 78.159c3.915-5.51 14.648-8.598 23.893-6.328a2 2 0 00.954-3.884c-10.737-2.637-23.165.94-28.107 7.894a2 2 0 003.26 2.318zM140.37 78.159c-3.915-5.51-14.648-8.598-23.893-6.328a2 2 0 01-.954-3.884c10.737-2.637 23.165.94 28.108 7.894a2 2 0 01-3.26 2.318z"/></g><g transform="translate(-32 -21)"><mask id="h" fill="#fff"><use xlink:href="#g"/></mask><g mask="url(#h)"><g transform="translate(-1)"><mask id="j" fill="#fff"><use xlink:href="#i"/></mask><use fill="#3B6BAD" xlink:href="#i"/><g mask="url(#j)"><path d="M1 0h264v280H1z" fill="#25557C"/></g><path d="M72.074 104.96A61.351 61.351 0 0171 93.5C71 59.534 98.758 32 133 32c34.242 0 62 27.534 62 61.5 0 3.916-.369 7.747-1.074 11.46C192.34 72.683 165.67 47 133 47s-59.341 25.683-60.926 57.96z" fill-opacity=".5" fill="#FFF" mask="url(#j)"/><path d="M187.93 104.695A54.756 54.756 0 01189 115.5v23c0 30.1-24.4 54.5-54.5 54.5h-3c-30.1 0-54.5-24.4-54.5-54.5v-23c0-3.7.369-7.312 1.07-10.805-.046.93-.07 1.864-.07 2.805v23c0 30.1 24.4 54.5 54.5 54.5h1c30.1 0 54.5-24.4 54.5-54.5v-23c0-.94-.024-1.876-.07-2.805zm-73.763 102.3c6.484 4.986 21.496 6.713 38.238 3.761 16.74-2.951 30.257-9.71 34.645-16.612.068.253.125.508.171.767 1.71 9.695-13.236 20.434-33.38 23.987-20.146 3.552-37.863-1.428-39.573-11.123a8.75 8.75 0 01-.101-.78zm11.868 28.926c8.192 5.654 24.387 5.923 41.069-.149 16.682-6.072 28.915-16.687 31.556-26.284.143.32.275.647.396.98 4.527 12.436-8.077 28.441-28.151 35.748-20.074 7.306-40.017 3.147-44.544-9.29-.12-.332-.23-.667-.326-1.005z" fill-opacity=".16" fill="#000" opacity=".9" mask="url(#j)"/></g></g></g></g></svg>
